packages/icons/assets/Pod.svg

<svg xmlns="http://www.w3.org/2000/svg" fill="none" viewBox="0 0 16 16"><path fill="#414141" d="M7.79297 15.907L0 12.4939V3.42993L8.00696 0 16 3.42993v9.06297L8.00696 16l-.21399-.093zm-6.73291-4.1001l6.45495 2.8271V7.03394L1.06006 4.28809v7.51881zm7.51489-4.79982v7.58982l6.36305-2.792V4.30493L8.57495 7.00708zm-.55994-.91016l5.79199-2.458L8.00696 1.1499 2.21704 3.62988l5.79797 2.46704z"/></svg>

<svg width="16" height="16" viewBox="0 0 16 16" fill="none" xmlns="http://www.w3.org/2000/svg">
<path d="M7.79297 15.907L0 12.4939V3.42993L8.00696 0L16 3.42993V12.4929L8.00696 16L7.79297 15.907ZM1.06006 11.8069L7.51501 14.634V7.03394L1.06006 4.28809V11.8069ZM8.57495 7.00708V14.5969L14.938 11.8049V4.30493L8.57495 7.00708ZM8.01501 6.09692L13.807 3.63892L8.00696 1.1499L2.21704 3.62988L8.01501 6.09692Z" fill="#414141"/>
</svg>
